X: 11034
M: 6/8
L: 1/8
K: F
c |\
f>gf e>fg | a>gf g2e |\
f>gf e>dc | d<Bd c2c |\
d<Bd f>ed | c>BA B2c |
d>ba gfe | f3c2A |\
dba gfe | f3 c2A |\


